X:172
T:The maid of Mt. Cisco
R:Reel
S:Richard Darsie's web page
Z:Transcription, chords:Mike Long
M:C|
L:1/8
K:G
"Am"EA~A2 BGAG|EA~A2 BGAG|"G"DG~G2 BGAG|DG~G2 DGB,D|\
"Am"EA~A2 BGAG|EA~A2 BABd|
"G/Em"eg~g2 ag~g2|"G"dBGB "Am"A3G:|\
"Am"A3B dBAB|"G"G2BG dGBG|"Am"A3B "G"d2Bd|"Em"egfa "G"gedB|
"Am"A3B dBAB|"G"G2BG dGBG|"Am"A3B "G"d2Bd|"Em"egfa "G"gedg\
|:"Am"ea~a2 bgag|"G"gedB GABd|
"Am"ea~a2 bgag|"Em"gede "G"g2eg|\
"Am"abaf "C"gage|"G"d2dB GABd|"Am"eA~A2 "Em"efge|"G"dBGB "Am"A4:|
